svg/design/anticlockwise_alt_line.svg

<?xml version="1.0" encoding="UTF-8"?>
<svg width="24px" height="24px" viewBox="0 0 24 24" version="1.1" xmlns="http://www.w3.org/2000/svg" xmlns:xlink="http://www.w3.org/1999/xlink">
    <title>anticlockwise_alt_line</title>
    <g id="Icon" stroke="none" stroke-width="1" fill="none" fill-rule="evenodd">
        <g id="Design" transform="translate(-528.000000, -288.000000)" fill-rule="nonzero">
            <g id="anticlockwise_alt_line" transform="translate(528.000000, 288.000000)">
                <path d="M24,0 L24,24 L0,24 L0,0 L24,0 Z M12.5935,23.2578 L12.5819,23.2595 L12.5109,23.295 L12.4919,23.2987 L12.4767,23.295 L12.4057,23.2595 C12.3958,23.2564 12.387,23.259 12.3821,23.2649 L12.378,23.2758 L12.3609,23.7031 L12.3659,23.7235 L12.3769,23.7357 L12.4805,23.8097 L12.4953,23.8136 L12.5071,23.8097 L12.6107,23.7357 L12.6233,23.7197 L12.6267,23.7031 L12.6096,23.2758 C12.6076,23.2657 12.601,23.2593 12.5935,23.2578 Z M12.8584,23.1453 L12.8445,23.1473 L12.6598,23.2397 L12.6499,23.2499 L12.6472,23.2611 L12.6651,23.6906 L12.6699,23.7034 L12.6784,23.7105 L12.8793,23.8032 C12.8914,23.8069 12.9022,23.803 12.9078,23.7952 L12.9118,23.7812 L12.8777,23.1665 C12.8753,23.1546 12.8674,23.147 12.8584,23.1453 Z M12.143,23.1473 C12.1332,23.1424 12.1222,23.1453 12.1156,23.1526 L12.1099,23.1665 L12.0758,23.7812 C12.0751,23.7927 12.0828,23.8019 12.0926,23.8046 L12.1083,23.8032 L12.3092,23.7105 L12.3186,23.7024 L12.3225,23.6906 L12.3404,23.2611 L12.3372,23.2485 L12.3278,23.2397 L12.143,23.1473 Z" id="MingCute"></path>
                <path d="M20,7.99999 C21.0543909,7.99999 21.9181678,8.81586733 21.9945144,9.85072759 L22,9.99999 L22,18.99999 C22,20.0543905 21.18415,20.9181586 20.1492661,20.9945045 L20,20.99999 L10,20.99999 C8.94563773,20.99999 8.08183483,20.1841491 8.00548573,19.1492574 L8,18.99999 L8,9.99999 C8,8.94562773 8.81587733,8.08182483 9.85073759,8.00547573 L10,7.99999 L20,7.99999 Z M20,9.99999 L10,9.99999 L10,18.99999 L20,18.99999 L20,9.99999 Z M10.9398,3.65804 C11.1285,4.17707 10.8608,4.75084 10.3417,4.93958 C8.46343,5.6226 7.08121,6.98179 6.07985,8.45552 C5.07812,9.92979 4.49561,11.4643 4.20466,12.391 C3.97391,13.126 3.25682,13.192 2.97178,13.1517 C2.68832,13.1116 2,12.8437 2,12.0559 L2,6.99978 C2,6.4475 2.44772,5.99978 3,5.99978 C3.55229,5.99978 4,6.4475 4,6.99978 L4,7.99509 C4.13366,7.77429 4.2754,7.55254 4.42559,7.33149 C5.57616,5.63818 7.26093,3.93175 9.65826,3.05999 C10.1773,2.87125 10.7511,3.13901 10.9398,3.65804 Z" id="形状" fill="#09244B"></path>
            </g>
        </g>
    </g>
</svg>

<svg xmlns="http://www.w3.org/2000/svg" width="24" height="24"><g fill="none" fill-rule="nonzero"><path d="M24 0v24H0V0h24ZM12.594 23.258l-.012.002-.071.035-.02.004-.014-.004-.071-.036c-.01-.003-.019 0-.024.006l-.004.01-.017.428.005.02.01.013.104.074.015.004.012-.004.104-.074.012-.016.004-.017-.017-.427c-.002-.01-.009-.017-.016-.018Zm.264-.113-.014.002-.184.093-.01.01-.003.011.018.43.005.012.008.008.201.092c.012.004.023 0 .029-.008l.004-.014-.034-.614c-.003-.012-.01-.02-.02-.022Zm-.715.002a.023.023 0 0 0-.027.006l-.006.014-.034.614c0 .012.007.02.017.024l.015-.002.201-.093.01-.008.003-.011.018-.43-.003-.012-.01-.01-.184-.092Z"/><path fill="#09244B" d="M20 8a2 2 0 0 1 1.995 1.85L22 10v9a2 2 0 0 1-1.85 1.995L20 21H10a2 2 0 0 1-1.995-1.85L8 19v-9a2 2 0 0 1 1.85-1.995L10 8h10Zm0 2H10v9h10v-9Zm-9.06-6.342a1 1 0 0 1-.598 1.282c-1.879.683-3.26 2.042-4.262 3.516-1.002 1.474-1.584 3.008-1.875 3.935-.231.735-.948.801-1.233.76-.284-.04-.972-.307-.972-1.095V7a1 1 0 0 1 2 0v.995c.134-.22.275-.442.426-.664 1.15-1.693 2.835-3.4 5.232-4.271a1 1 0 0 1 1.282.598Z"/></g></svg>
